X: 1
T:Empress -- Clog
M:C|
L:1/8
R:clog
B:Ryan's Mammoth Collection
Z:Contributed by Ray Davies, ray:davies99.freeserve.co.uk
K:Dm
uA2|vd"4">.e(d>.^c) (d>.A)(F>.D)|(^C>.E)"SEGUE"G>_B A>^ce>g|\
_b>ab>g f>^cA>G|F>GE>F D2"0"A2|\
d>"4"ed>^c d>AF>D|^C>EG>_B A>^ce>g|\
_b>ab>g e>^cA>c|d2f2 d2::
K:D
ud2|v(d>.b)(b>.b) "SEGUE"b>aa>c|\
"1"d>"4"d'd'>d' "04"e'>"4"d'"1"a>"3"f|\
"2"g>be>g c>"4"eA>c|f>ad>f A>dF>A|\
d>bb>b b>aa>c|"1"d>"4"d'd'>d' "04"e'>"4"d'"1"a>"3"f|\
g>be>g c>"4"eA>c|d2f2d2:|
